assets/sprite/svg/faq__badge_axe.svg

<svg width="87" height="101" viewBox="0 0 87 101" fill="none" xmlns="http://www.w3.org/2000/svg">
<path d="M73.7824 28.6224L78.6684 62.5083C78.2462 67.1328 75.5197 72.1414 70.8004 76.9966C65.5846 82.3642 58.1288 87.3028 49.1655 91.3178C39.4622 90.0202 30.9149 87.3891 24.3952 83.7137C18.4929 80.3641 14.4625 76.3297 12.7547 72.0383L7.86502 38.127C7.87577 38.0217 7.88652 37.9165 7.89361 37.7858C7.90802 37.7059 7.92244 37.6261 7.91511 37.5753C7.92586 37.47 7.93661 37.3647 7.94736 37.2594C7.9437 37.234 7.9437 37.234 7.96544 37.205C7.98352 37.1505 7.97985 37.1251 7.97253 37.0743C7.98694 36.9944 7.99769 36.8892 8.01211 36.8093C8.04093 36.6496 8.07342 36.5152 8.10591 36.3809L8.10225 36.3555C8.13474 36.2212 8.16723 36.0868 8.19606 35.9271C8.22855 35.7928 8.2647 35.6838 8.29719 35.5495C8.43082 35.0376 8.58984 34.522 8.77793 34.0281C8.8285 33.8393 8.90813 33.6723 8.9841 33.4798C9.02391 33.3963 9.06006 33.2873 9.09988 33.2038C9.13603 33.0949 9.17585 33.0113 9.212 32.9024C9.25182 32.8189 9.28797 32.7099 9.32778 32.6264C9.32778 32.6264 9.32412 32.601 9.34952 32.5973C9.37493 32.5937 9.34586 32.5719 9.37126 32.5683C9.42915 32.4303 9.50879 32.2632 9.59208 32.1216C9.68979 31.9 9.79116 31.7039 9.91427 31.4787C9.9939 31.3117 10.0989 31.1409 10.1786 30.9739C10.3017 30.7487 10.4248 30.5235 10.5733 30.2946C10.6529 30.1276 10.7616 29.9823 10.8666 29.8115C10.968 29.6154 11.0985 29.441 11.2252 29.2412C11.352 29.0415 11.457 28.8707 11.5838 28.6709C11.7975 28.3549 12.033 28.0098 12.2721 27.6901C12.3373 27.6029 12.4026 27.5157 12.4678 27.4285C12.5511 27.2868 12.6634 27.1669 12.7721 27.0216C13.0547 26.6438 13.3627 26.2623 13.6744 25.9062C13.8085 25.7572 13.9172 25.6119 14.0513 25.4629C14.1854 25.3139 14.3195 25.1649 14.4536 25.0159C14.5877 24.8669 14.7218 24.718 14.8559 24.569C15.1241 24.271 15.4177 23.9694 15.7113 23.6677C20.9488 18.2711 28.4046 13.3325 37.3679 9.31748C47.0749 10.6405 55.6222 13.2716 62.1419 16.947C62.7921 17.32 63.4422 17.693 64.0453 18.0987C64.216 18.2037 64.3867 18.3088 64.532 18.4175C65.4474 19.0115 66.2903 19.6419 67.1078 20.276C67.224 20.363 67.344 20.4753 67.4602 20.5623C67.7255 20.7834 67.9907 21.0044 68.2559 21.2255C68.4049 21.3596 68.583 21.5154 68.732 21.6495C69.1535 22.0554 69.5714 22.436 69.9421 22.8493C70.033 22.9399 70.1275 23.0559 70.222 23.1719C70.4655 23.4221 70.6836 23.6758 70.8763 23.9333C71.0944 24.1871 71.2871 24.4445 71.4798 24.7019C71.5416 24.7708 71.578 24.8434 71.6398 24.9122C71.738 25.0537 71.8325 25.1697 71.9307 25.3111C72.0325 25.4779 72.1561 25.6157 72.258 25.7825C72.3234 25.8768 72.3925 25.9965 72.458 26.0908C72.5962 26.3301 72.7599 26.5658 72.8727 26.8089C72.9418 26.9285 73.0146 27.0736 73.0837 27.1933C73.0874 27.2187 73.1164 27.2404 73.1164 27.2404C73.1855 27.3601 73.2293 27.4835 73.2984 27.6032C73.3348 27.6757 73.3675 27.7228 73.3785 27.799C73.4476 27.9187 73.495 28.0675 73.5641 28.1872C73.6586 28.3032 73.7314 28.4483 73.7824 28.6224Z" fill="#40757A"/>
<path d="M70.8955 23.9314C71.1136 24.1851 71.3063 24.4426 71.499 24.7C71.328 24.4135 71.1099 24.1597 70.8955 23.9314Z" fill="#FFBC00"/>
<path d="M77.4428 27.4448C76.2373 24.2996 74.0666 21.2936 71.0541 18.5645C69.7751 17.4265 68.3436 16.3105 66.7924 15.2636C65.9061 14.6913 64.9944 14.1227 64.0318 13.5614C56.9745 9.5745 47.7265 6.75919 37.3117 5.38269L36.7817 5.30353L36.2956 5.5292C26.6902 9.76647 18.6143 15.0797 12.9744 20.9233C7.53751 26.5561 4.44561 32.4472 4.00647 38.0336L3.98497 38.2441L8.99548 72.9936L9.07558 73.1895C11.075 78.4243 15.7052 83.2019 22.5083 87.0439C29.5656 91.0308 38.8136 93.8461 49.2284 95.2226L49.7584 95.3017L50.2445 95.0761C59.8499 90.8388 67.9222 85.5002 73.5657 79.682C78.9809 74.0782 82.0981 68.1835 82.5373 62.5971L82.5588 62.3866L77.5483 27.6371L77.4428 27.4448ZM78.6645 62.5332C78.2423 67.1577 75.5158 72.1664 70.7965 77.0215C65.5807 82.3891 58.1249 87.3277 49.1617 91.3427C39.4547 90.0198 30.9074 87.3886 24.3876 83.7132C18.4853 80.3636 14.455 76.3293 12.7471 72.0378L7.85749 38.1265C7.86824 38.0213 7.87899 37.916 7.88608 37.7853C7.90049 37.7055 7.91491 37.6256 7.90758 37.5748C7.91833 37.4695 7.92908 37.3642 7.93983 37.259C7.93617 37.2336 7.93617 37.2336 7.95791 37.2045C7.97599 37.15 7.97232 37.1246 7.965 37.0738C7.97941 36.994 7.99016 36.8887 8.00458 36.8088C8.0334 36.6491 8.06589 36.5148 8.09838 36.3804L8.09472 36.355C8.12721 36.2207 8.1597 36.0864 8.18853 35.9266C8.22102 35.7923 8.25717 35.6834 8.28966 35.549C8.42329 35.0371 8.58231 34.5215 8.7704 34.0276C8.82097 33.8388 8.9006 33.6718 8.97657 33.4793C9.01638 33.3958 9.05253 33.2869 9.09235 33.2033C9.1285 33.0944 9.16832 33.0109 9.20447 32.9019C9.24429 32.8184 9.28044 32.7095 9.32025 32.6259C9.32025 32.6259 9.31659 32.6005 9.34199 32.5969C9.36739 32.5932 9.33833 32.5715 9.36373 32.5678C9.42162 32.4298 9.50125 32.2627 9.58455 32.1211C9.68225 31.8996 9.78362 31.7034 9.90673 31.4782C9.98636 31.3112 10.0914 31.1405 10.171 30.9734C10.2941 30.7482 10.4172 30.523 10.5658 30.2942C10.6454 30.1271 10.7541 29.9818 10.8591 29.8111C10.9605 29.6149 11.0909 29.4406 11.2177 29.2408C11.3445 29.041 11.4495 28.8703 11.5763 28.6705C11.79 28.3544 12.0255 28.0093 12.2646 27.6896C12.3298 27.6024 12.395 27.5152 12.4602 27.428C12.5435 27.2864 12.6559 27.1664 12.7646 27.0211C13.0472 26.6433 13.3552 26.2618 13.6669 25.9057C13.801 25.7567 13.9097 25.6114 14.0438 25.4624C14.1779 25.3134 14.312 25.1644 14.4461 25.0154C14.5802 24.8665 14.7143 24.7175 14.8483 24.5685C15.1165 24.2705 15.4101 23.9689 15.7037 23.6673C20.9413 18.2706 28.3971 13.332 37.3604 9.317C47.0674 10.64 55.6146 13.2711 62.1344 16.9465C62.7845 17.3195 63.4347 17.6925 64.0377 18.0982C64.2085 18.2033 64.3792 18.3083 64.5245 18.417C65.4399 19.011 66.2828 19.6415 67.1002 20.2756C67.2165 20.3625 67.3364 20.4749 67.4527 20.5618C67.7179 20.7829 67.9831 21.0039 68.2484 21.225C68.3974 21.3591 68.5754 21.5149 68.7244 21.649C69.146 22.055 69.5638 22.4355 69.9346 22.8488C70.0291 22.9648 70.12 23.0554 70.2145 23.1715C70.458 23.4216 70.6761 23.6754 70.8688 23.9328C71.0869 24.1866 71.2796 24.444 71.4723 24.7015C71.5341 24.7703 71.5705 24.8429 71.6323 24.9118C71.7304 25.0532 71.825 25.1692 71.9231 25.3106C72.025 25.4775 72.1486 25.6152 72.2504 25.782C72.3159 25.8763 72.385 25.996 72.4504 26.0903C72.5887 26.3297 72.7523 26.5654 72.8651 26.8084C72.9343 26.9281 73.007 27.0732 73.0762 27.1928C73.0798 27.2182 73.1089 27.24 73.1089 27.24C73.178 27.3597 73.2217 27.483 73.2908 27.6027C73.3272 27.6752 73.3599 27.7224 73.3709 27.7986C73.44 27.9183 73.4874 28.067 73.5565 28.1867C73.633 28.3572 73.7058 28.5023 73.7568 28.6764L78.6391 62.5369L78.6645 62.5332Z" fill="#FFBC00"/>
<path d="M28.3859 54.2768L26.0339 57.0274L25.146 58.063L24.0589 59.3347L11.6703 39.0547L12.0975 38.2412L12.2966 37.8235L13.9728 34.5221L14.7476 33.0621L15.2073 32.1142L15.8011 31.0173L28.3859 54.2768Z" fill="#FFCB64"/>
<path d="M24.0473 59.332L19.3683 58.8916C19.3683 58.8916 9.75283 41.479 7.91846 37.5688C7.92922 37.4635 7.93997 37.3582 7.95072 37.253C7.94705 37.2276 7.94706 37.2276 7.96879 37.1985C9.10301 38.5907 10.1706 38.9813 10.8567 39.0639C11.3576 39.1213 11.6551 39.0266 11.6551 39.0266L24.0473 59.332Z" fill="#CCA052"/>
<path d="M15.7757 31.0197L15.2073 32.1129L14.7222 33.0645L13.9765 34.5463L12.8651 36.729L12.3003 37.8477L12.0976 38.2399L11.6704 39.0535C11.6704 39.0535 11.3438 39.1265 10.8719 39.0908C10.0588 39.0265 8.8171 38.687 7.9623 37.2545C7.95864 37.2291 7.95864 37.2291 7.98038 37.2C7.99845 37.1455 7.99479 37.1201 7.98747 37.0693C8.00188 36.9895 8.01263 36.8842 8.02704 36.8043C8.05587 36.6446 8.08836 36.5102 8.12085 36.3759L8.11719 36.3505C8.14968 36.2162 8.18217 36.0818 8.211 35.9221C8.24349 35.7878 8.27964 35.6788 8.31213 35.5445C8.44575 35.0326 8.60478 34.517 8.79287 34.0231C8.84343 33.8343 8.92306 33.6673 8.99903 33.4748C9.03885 33.3913 9.075 33.2823 9.11482 33.1988C9.15097 33.0899 9.19078 33.0063 9.22694 32.8974C9.26675 32.8139 9.3029 32.705 9.34272 32.6214C9.34272 32.6214 9.33906 32.596 9.36446 32.5924C10.5137 31.571 12.4799 30.8207 15.7757 31.0197Z" fill="#FFDB8A"/>
<path d="M14.7436 33.0631L25.5231 52.4342L13.9688 34.5232L14.7436 33.0631Z" fill="#FFBD48"/>
<path d="M15.202 32.1159L12.0632 38.2212C10.7016 37.7693 9.72756 36.7688 9.62795 35.5386C9.49858 33.7421 11.2931 32.161 13.6049 32.0091C14.1928 31.9503 14.7192 32.0041 15.202 32.1159Z" fill="#FFD278"/>
<path d="M12.2937 37.8227C12.2937 37.8227 9.42883 34.1388 14.7446 33.0612L12.2937 37.8227Z" fill="#FFCB64"/>
<path d="M26.0273 57.0252L25.1394 58.0608L16.2998 42.7922L26.0273 57.0252Z" fill="#FFBD48"/>
<path d="M35.1635 17.4642C35.1635 17.4642 4.40273 47.4404 50.4448 71.1136L45.6794 74.0307C45.654 74.0343 1.22635 52.5658 35.1635 17.4642Z" fill="white"/>
<path d="M68.2526 21.223C57.9721 31.0288 47.2302 43.2089 43.4032 47.5983C42.4682 48.6666 41.9608 49.2843 41.9608 49.2843L31.9305 47.6968C31.9305 47.6968 35.593 45.2239 39.8171 41.97C43.0623 39.4796 46.6262 36.5024 49.0944 33.8387C51.4068 31.3531 57.4704 24.8521 64.0419 18.0963C64.2126 18.2013 64.3833 18.3063 64.5287 18.415C65.4441 19.0091 66.2869 19.6395 67.1044 20.2736C67.2207 20.3605 67.3406 20.4729 67.4568 20.5598C67.7438 20.7518 67.9873 21.002 68.2526 21.223Z" fill="#91482F"/>
<path d="M29.337 46.7996L35.7092 40.28C35.7092 40.28 43.3579 41.3552 43.524 48.9806C43.6329 54.5917 52.2281 55.0378 56.7176 54.8831C58.3182 54.8338 59.3887 54.7054 59.3887 54.7054C59.3887 54.7054 60.2446 65.3169 50.1091 72.1717C50.1091 72.1717 49.7056 71.7113 49.0223 70.9282C44.9257 66.2552 30.6658 49.9011 29.337 46.7996Z" fill="#444444"/>
<path d="M56.7191 54.911C58.3197 54.8617 59.3902 54.7333 59.3902 54.7333C59.3902 54.7333 60.2461 65.3448 50.1106 72.1997C50.1106 72.1997 49.7071 71.7392 49.0238 70.9562C51.3442 69.0658 58.6127 62.4688 56.7191 54.911Z" fill="#B5B5B5"/>
<path d="M74.8491 36.1173L75.9845 43.9918C75.7855 44.4095 75.561 44.8308 75.3619 45.2485C75.2207 45.5281 75.1013 45.7787 74.9564 46.033C74.5763 46.8138 74.1889 47.5438 73.8233 48.2448C73.2729 49.2835 72.8059 50.1806 72.4801 50.7981C72.462 50.8526 72.4185 50.9107 72.3968 50.9397C72.1288 51.4192 71.9913 51.7242 71.9913 51.7242L71.9258 51.63L69.8645 49.023L69.0356 47.9498L65.6764 43.7149L67.9206 41.8355L69.1026 40.8613L74.153 36.6844L74.8491 36.1173Z" fill="#FFDB8A"/>
<path d="M75.6885 41.8838L76.3661 46.5831L71.1502 65.7972C71.1502 65.7972 63.4215 72.9791 59.0735 70.3389L65.7061 43.6861C65.8187 43.7477 71.4935 45.1594 75.6885 41.8838Z" fill="#CCA052"/>
<path d="M62.8152 68.4244L66.7013 45.3829L64.4814 68.6508L62.8152 68.4244Z" fill="#C18F3E"/>
<path d="M74.9386 49.5075C74.5996 51.1122 68.9882 64.8862 68.9882 64.8862L75.4112 44.5127L74.9386 49.5075Z" fill="#C18F3E"/>
<path d="M67.5333 52.3934L67.8519 49.0284L69.5601 50.8046L68.319 53.7062L67.5333 52.3934Z" fill="#C18F3E"/>
<path d="M74.8539 36.1141L75.4106 39.9752C74.0333 41.3925 71.6135 42.234 69.0108 41.987C68.6442 41.9621 68.2703 41.8863 67.9254 41.8323L69.1073 40.8581L74.1578 36.6812L74.8539 36.1141Z" fill="#FFD278"/>
<path d="M74.1587 36.6827C74.3638 38.1051 74.4047 41.6257 69.1082 40.8595L74.1587 36.6827Z" fill="#FFCB64"/>
<path d="M27.4079 65.6714L19.3252 63.0251L28.7052 64.0582L30.1257 65.098L27.4079 65.6714Z" fill="#FFDB8A"/>
<path d="M53.8137 48.2769L52.0732 41.2416L55.625 48.4306L55.5072 49.9515L53.8137 48.2769Z" fill="#FFDB8A"/>
<path d="M57.5543 49.7873L59.0722 44.8492L59.1795 49.1899L58.4008 50.4431L57.5543 49.7873Z" fill="#FFDB8A"/>
</svg>

<svg width="87" height="101" fill="none" xmlns="http://www.w3.org/2000/svg"><path d="M73.782 28.622l4.886 33.886c-.422 4.625-3.148 9.633-7.868 14.489-5.215 5.367-12.671 10.306-21.634 14.32-9.704-1.297-18.251-3.928-24.77-7.603-5.903-3.35-9.934-7.384-11.641-11.676l-4.89-33.911c.01-.105.022-.21.029-.341.014-.08.028-.16.021-.21l.032-.317c-.003-.025-.003-.025.018-.054.019-.054.015-.08.008-.13.014-.08.025-.186.04-.266.028-.16.06-.294.093-.428l-.004-.026c.033-.134.065-.268.094-.428.033-.134.069-.243.101-.377.134-.512.293-1.028.48-1.522.052-.189.131-.356.207-.548.04-.084.076-.193.116-.276.036-.11.076-.193.112-.302.04-.083.076-.192.116-.276 0 0-.004-.025.022-.029.025-.003-.004-.025.021-.029a3.91 3.91 0 01.221-.446c.098-.222.2-.418.322-.643.08-.167.185-.338.265-.505.123-.225.246-.45.394-.68.08-.166.189-.312.294-.483.101-.196.231-.37.358-.57l.359-.57c.213-.316.449-.661.688-.98l.196-.262c.083-.142.195-.262.304-.407.283-.378.59-.76.902-1.116.135-.149.243-.294.377-.443l.403-.447.402-.447c.268-.298.562-.6.855-.901 5.238-5.397 12.694-10.335 21.657-14.35 9.707 1.322 18.254 3.954 24.774 7.629.65.373 1.3.746 1.903 1.152.171.105.342.21.487.319a37.458 37.458 0 012.576 1.858c.116.087.236.2.352.286l.796.663c.149.135.327.29.476.424.421.406.84.787 1.21 1.2.091.09.186.207.28.323.244.25.462.504.654.761.218.254.411.512.604.769.062.069.098.141.16.21.098.142.192.258.29.4.102.166.226.304.328.47.065.095.135.215.2.309.138.24.302.475.415.718.069.12.142.265.21.384.004.026.033.047.033.047.07.12.113.244.182.363.037.073.07.12.08.196.07.12.117.268.186.388.095.116.167.261.218.435z" fill="#40757A"/><path d="M70.895 23.931c.219.254.411.512.604.769a4.555 4.555 0 00-.603-.769z" fill="#FFBC00"/><path d="M77.443 27.445c-1.206-3.145-3.376-6.151-6.389-8.88a40.602 40.602 0 00-4.262-3.301 70.957 70.957 0 00-2.76-1.703c-7.057-3.986-16.305-6.802-26.72-8.178l-.53-.08-.486.226c-9.606 4.237-17.682 9.55-23.322 15.394-5.436 5.633-8.528 11.524-8.968 17.11l-.021.211 5.01 34.75.08.195c2 5.235 6.63 10.013 13.433 13.855 7.058 3.987 16.306 6.802 26.72 8.179l.53.079.486-.226C59.85 90.84 67.922 85.5 73.567 79.682c5.415-5.604 8.532-11.499 8.971-17.085l.022-.21-5.01-34.75-.106-.192zm1.222 35.088c-.423 4.625-3.15 9.633-7.869 14.489-5.215 5.367-12.671 10.306-21.634 14.32-9.707-1.322-18.255-3.953-24.774-7.629-5.903-3.35-9.933-7.384-11.64-11.675l-4.89-33.911c.01-.106.021-.211.028-.342a.793.793 0 00.022-.21l.032-.316c-.004-.025-.004-.025.018-.054.018-.055.014-.08.007-.131.014-.08.025-.185.04-.265.028-.16.06-.294.093-.429l-.003-.025c.032-.134.065-.269.094-.428.032-.135.068-.244.1-.378.134-.512.293-1.027.481-1.521.051-.19.13-.356.207-.549.04-.083.076-.192.115-.276.037-.109.076-.192.112-.301.04-.084.076-.193.116-.276 0 0-.003-.026.022-.03.025-.003-.004-.024.022-.028a3.91 3.91 0 01.22-.447c.098-.221.2-.418.323-.643.08-.167.184-.338.264-.505.123-.225.246-.45.395-.679.08-.167.188-.312.293-.483.101-.196.232-.37.359-.57.127-.2.232-.37.358-.57.214-.317.45-.662.689-.981l.195-.262c.083-.142.196-.262.305-.407.282-.378.59-.76.902-1.115.134-.15.243-.295.377-.444l.402-.447.402-.447c.268-.298.562-.6.856-.9C20.94 18.27 28.397 13.331 37.36 9.316c9.707 1.323 18.255 3.954 24.774 7.63.65.373 1.3.745 1.904 1.151.17.105.341.21.487.319a37.433 37.433 0 012.575 1.859c.117.087.236.199.353.286l.795.663.476.424c.422.406.84.787 1.21 1.2.095.116.186.206.28.323.244.25.462.503.655.76.218.255.41.512.603.77.062.068.099.14.16.21.098.141.193.257.291.399.102.166.226.304.327.471.066.094.135.214.2.308.139.24.302.475.415.718.07.12.142.265.211.385.004.025.033.047.033.047.069.12.113.243.182.363.036.072.069.12.08.196.069.12.116.268.186.388.076.17.149.315.2.49l4.882 33.86.026-.004z" fill="#FFBC00"/><path d="M28.386 54.277l-2.352 2.75-.888 1.036-1.087 1.272-12.389-20.28.428-.814.199-.417 1.676-3.302.775-1.46.46-.948.593-1.097 12.585 23.26z" fill="#FFCB64"/><path d="M24.047 59.332l-4.679-.44S9.753 41.479 7.918 37.569l.033-.316c-.004-.025-.004-.025.018-.054 1.134 1.392 2.202 1.782 2.888 1.865.5.057.798-.037.798-.037l12.392 20.305z" fill="#CCA052"/><path d="M15.776 31.02l-.569 1.093-.485.952-.745 1.481-1.112 2.183-.565 1.119-.202.392-.428.813s-.326.074-.798.038c-.813-.065-2.055-.404-2.91-1.837-.003-.025-.003-.025.018-.054.018-.055.015-.08.007-.13.015-.08.026-.186.04-.266.029-.16.061-.294.094-.428l-.004-.026c.033-.134.065-.268.094-.428.032-.134.069-.243.101-.377.134-.512.293-1.028.48-1.522.051-.189.131-.356.207-.548.04-.084.076-.193.116-.276.036-.11.076-.193.112-.302.04-.083.076-.192.116-.276 0 0-.004-.025.021-.029 1.15-1.021 3.116-1.771 6.412-1.572z" fill="#FFDB8A"/><path d="M14.744 33.063l10.78 19.371-11.555-17.91.775-1.46z" fill="#FFBD48"/><path d="M15.202 32.116l-3.139 6.105c-1.361-.452-2.335-1.452-2.435-2.682-.13-1.797 1.665-3.378 3.977-3.53a4.843 4.843 0 011.597.107z" fill="#FFD278"/><path d="M12.294 37.823s-2.865-3.684 2.45-4.762l-2.45 4.762z" fill="#FFCB64"/><path d="M26.027 57.025l-.888 1.036-8.84-15.269 9.728 14.233z" fill="#FFBD48"/><path d="M35.163 17.464S4.403 47.44 50.445 71.114l-4.766 2.917c-.025.003-44.453-21.465-10.516-56.567z" fill="#fff"/><path d="M68.253 21.223c-10.28 9.806-21.023 21.986-24.85 26.375-.935 1.069-1.442 1.686-1.442 1.686l-10.03-1.587s3.662-2.473 7.886-5.727c3.245-2.49 6.81-5.468 9.277-8.131 2.313-2.486 8.376-8.987 14.948-15.743.17.105.341.21.487.319a37.49 37.49 0 012.575 1.859c.117.086.237.199.353.286.287.192.53.442.796.663z" fill="#91482F"/><path d="M29.337 46.8l6.372-6.52s7.649 1.075 7.815 8.7c.109 5.612 8.704 6.058 13.194 5.903 1.6-.05 2.67-.178 2.67-.178s.857 10.612-9.279 17.467l-1.087-1.244C44.926 66.255 30.666 49.901 29.337 46.8z" fill="#444"/><path d="M56.72 54.911c1.6-.05 2.67-.178 2.67-.178s.856 10.612-9.28 17.467c0 0-.403-.46-1.086-1.244 2.32-1.89 9.589-8.487 7.695-16.045z" fill="#B5B5B5"/><path d="M74.85 36.117l1.135 7.875c-.2.418-.424.839-.623 1.257-.141.28-.26.53-.406.784-.38.78-.767 1.51-1.133 2.212-.55 1.038-1.017 1.936-1.343 2.553-.018.055-.062.113-.083.142-.268.48-.406.784-.406.784l-.065-.094-2.061-2.607-.83-1.073-3.359-4.235 2.245-1.88 1.182-.974 5.05-4.177.696-.567z" fill="#FFDB8A"/><path d="M75.689 41.884l.677 4.7-5.216 19.213s-7.729 7.182-12.077 4.542l6.633-26.653c.113.062 5.787 1.473 9.983-1.802z" fill="#CCA052"/><path d="M62.815 68.424l3.886-23.041-2.22 23.268-1.666-.227zM74.939 49.508c-.34 1.604-5.95 15.378-5.95 15.378l6.422-20.373-.472 4.995zM67.533 52.393l.319-3.365 1.708 1.777-1.241 2.901-.786-1.313z" fill="#C18F3E"/><path d="M74.854 36.114l.557 3.861c-1.378 1.417-3.797 2.259-6.4 2.012-.367-.025-.74-.1-1.086-.155l1.182-.974 5.05-4.177.697-.567z" fill="#FFD278"/><path d="M74.159 36.683c.205 1.422.246 4.943-5.05 4.176l5.05-4.176z" fill="#FFCB64"/><path d="M27.408 65.671l-8.083-2.646 9.38 1.033 1.42 1.04-2.717.573zM53.814 48.277l-1.74-7.035 3.551 7.189-.118 1.52-1.693-1.674zM57.554 49.787l1.518-4.938.107 4.34-.778 1.254-.847-.656z" fill="#FFDB8A"/></svg>
